phalcon/images/backers/o2.svg

<svg width="38" height="31" viewBox="0 0 38 31" fill="none" xmlns="http://www.w3.org/2000/svg">
    <path d="M15.375 29.3529C22.9283 29.3529 29.0514 23.2298 29.0514 15.6765C29.0514 8.12317 22.9283 2 15.375 2C7.82165 2 1.69849 8.12317 1.69849 15.6765C1.69849 23.2298 7.82165 29.3529 15.375 29.3529Z" stroke="#273646" stroke-opacity="0.7" stroke-width="3"></path>
    <path d="M33.9044 23.6177H32.1397V30.6765H33.9044V23.6177Z" fill="#273646" fill-opacity="0.7"></path>
    <path d="M37.4338 23.6177H35.6691V30.6765H37.4338V23.6177Z" fill="#273646" fill-opacity="0.7"></path>
</svg>

<svg width="38" height="31" viewBox="0 0 38 31" fill="none" xmlns="http://www.w3.org/2000/svg"><path d="M15.375 29.353c7.553 0 13.676-6.123 13.676-13.677C29.051 8.123 22.928 2 15.375 2S1.698 8.123 1.698 15.677c0 7.553 6.124 13.676 13.677 13.676z" stroke="#273646" stroke-opacity=".7" stroke-width="3"/><path d="M33.904 23.618H32.14v7.059h1.764v-7.06zM37.434 23.618h-1.765v7.059h1.765v-7.06z" fill="#273646" fill-opacity=".7"/></svg>
